X: 21577
T: Kilkenny
R: jig
M: 6/8
K: Adorian
B|:c2A dcB|AEF GAB|c2A dcB|ABA A2B|
c2A dcB|AEF GAB|cde ded|1 BAG A2B:|2 BAG A3||
|:g3 agf|g2e ede|a2e a2e|a2e ede|
g3 agf|g2e edB|cde dBG|1 ABA A3:|2 ABA A2B||

